X: 1
T: Far From Home
Z: 1997 by John Chambers <jc:trillian.mit.edu>
M: C|
L: 1/8
K: G
|: "G"GEDE G2GA | B2BA Bcd2 | "G"GEDE "Em"G2GB | "Am"A2AB "D7"AGED |
|  "G"GEDE G2GA | B2BA Bcd2 | "C"edef "(G)"gedc | "D7"BGAF "G"G4 :|
|: "Em"g2ge "D"f2fd | "C"edef "G"edB2 | gedB "Em"G2GB | "Am"A2AB "D7"AGED |
|  "G"GEDE G2GA | B2BA Bcd2 | "C"edef "(G)"gedc | "D7"BGAF "G"G4 :|
